assets/img/instagram-logo.svg

<svg xmlns="http://www.w3.org/2000/svg" width="22" height="22" viewBox="0 0 22 22" fill="none">
  <g clip-path="url(#clip0_1477_9626)">
    <path d="M16.8438 0H5.15625C2.30853 0 0 2.30853 0 5.15625V16.8438C0 19.6915 2.30853 22 5.15625 22H16.8438C19.6915 22 22 19.6915 22 16.8438V5.15625C22 2.30853 19.6915 0 16.8438 0Z" fill="url(#paint0_radial_1477_9626)"/>
    <path d="M16.8438 0H5.15625C2.30853 0 0 2.30853 0 5.15625V16.8438C0 19.6915 2.30853 22 5.15625 22H16.8438C19.6915 22 22 19.6915 22 16.8438V5.15625C22 2.30853 19.6915 0 16.8438 0Z" fill="url(#paint1_radial_1477_9626)"/>
    <path d="M11.0008 2.40625C8.66688 2.40625 8.37392 2.41648 7.45731 2.45816C6.54242 2.50009 5.91791 2.6449 5.37152 2.85742C4.80623 3.07691 4.32678 3.37055 3.84914 3.84837C3.37107 4.32609 3.07742 4.80554 2.85725 5.37058C2.64413 5.91714 2.49915 6.54191 2.45798 7.45637C2.41699 8.37306 2.40625 8.66611 2.40625 11.0001C2.40625 13.3341 2.41656 13.6261 2.45816 14.5427C2.50027 15.4576 2.64507 16.0821 2.85742 16.6285C3.07708 17.1938 3.37073 17.6732 3.84854 18.1509C4.32609 18.6289 4.80554 18.9233 5.37041 19.1427C5.91723 19.3553 6.54182 19.5001 7.45654 19.542C8.37323 19.5837 8.66594 19.5939 10.9997 19.5939C13.3339 19.5939 13.6259 19.5837 14.5425 19.542C15.4574 19.5001 16.0826 19.3553 16.6294 19.1427C17.1945 18.9233 17.6732 18.6289 18.1507 18.1509C18.6288 17.6732 18.9223 17.1938 19.1426 16.6287C19.3538 16.0821 19.4989 15.4574 19.5418 14.5429C19.583 13.6262 19.5938 13.3341 19.5938 11.0001C19.5938 8.66611 19.583 8.37323 19.5418 7.45654C19.4989 6.54165 19.3538 5.91723 19.1426 5.37084C18.9223 4.80554 18.6288 4.32609 18.1507 3.84837C17.6727 3.37038 17.1946 3.07673 16.6289 2.85751C16.0811 2.6449 15.4562 2.50001 14.5413 2.45816C13.6246 2.41648 13.3328 2.40625 10.9981 2.40625H11.0008ZM10.2298 3.95493C10.4587 3.95459 10.714 3.95493 11.0008 3.95493C13.2954 3.95493 13.5673 3.96318 14.4734 4.00434C15.3113 4.04267 15.7661 4.18266 16.069 4.30031C16.4701 4.45603 16.756 4.64226 17.0566 4.94313C17.3574 5.24391 17.5435 5.53034 17.6997 5.93141C17.8173 6.23391 17.9575 6.68869 17.9957 7.52658C18.0368 8.43253 18.0458 8.70461 18.0458 10.9981C18.0458 13.2916 18.0368 13.5638 17.9957 14.4696C17.9573 15.3075 17.8173 15.7623 17.6997 16.0649C17.544 16.466 17.3574 16.7515 17.0566 17.0521C16.7558 17.3529 16.4703 17.5391 16.069 17.6949C15.7664 17.813 15.3113 17.9527 14.4734 17.991C13.5675 18.0322 13.2954 18.0411 11.0008 18.0411C8.70607 18.0411 8.43408 18.0322 7.52821 17.991C6.69032 17.9523 6.23554 17.8124 5.93235 17.6947C5.53137 17.5389 5.24485 17.3528 4.94407 17.052C4.64329 16.7512 4.45715 16.4655 4.301 16.0642C4.18335 15.7616 4.04319 15.3068 4.00503 14.469C3.96387 13.563 3.95562 13.2909 3.95562 10.996C3.95562 8.701 3.96387 8.43038 4.00503 7.52443C4.04336 6.68654 4.18335 6.23176 4.301 5.92883C4.4568 5.52776 4.64329 5.24133 4.94416 4.94055C5.24502 4.63977 5.53137 4.45354 5.93244 4.29748C6.23537 4.17931 6.69032 4.03966 7.52821 4.00116C8.32098 3.96533 8.62821 3.95459 10.2298 3.95278V3.95493ZM15.5881 5.38184C15.0188 5.38184 14.5569 5.84332 14.5569 6.41274C14.5569 6.98208 15.0188 7.44399 15.5881 7.44399C16.1575 7.44399 16.6194 6.98208 16.6194 6.41274C16.6194 5.84341 16.1575 5.38149 15.5881 5.38149V5.38184ZM11.0008 6.58677C8.56359 6.58677 6.58754 8.56281 6.58754 11.0001C6.58754 13.4374 8.56359 15.4125 11.0008 15.4125C13.438 15.4125 15.4134 13.4374 15.4134 11.0001C15.4134 8.5629 13.4379 6.58677 11.0006 6.58677H11.0008ZM11.0008 8.13545C12.5828 8.13545 13.8654 9.41789 13.8654 11.0001C13.8654 12.5821 12.5828 13.8647 11.0008 13.8647C9.41875 13.8647 8.13622 12.5821 8.13622 11.0001C8.13622 9.41789 9.41866 8.13545 11.0008 8.13545Z" fill="white"/>
  </g>
  <defs>
    <radialGradient id="paint0_radial_1477_9626" cx="0" cy="0" r="1" gradientUnits="userSpaceOnUse" gradientTransform="translate(5.84375 23.6944) rotate(-90) scale(21.8036 20.2791)">
      <stop stop-color="#FFDD55"/>
      <stop offset="0.1" stop-color="#FFDD55"/>
      <stop offset="0.5" stop-color="#FF543E"/>
      <stop offset="1" stop-color="#C837AB"/>
    </radialGradient>
    <radialGradient id="paint1_radial_1477_9626" cx="0" cy="0" r="1" gradientUnits="userSpaceOnUse" gradientTransform="translate(-3.68509 1.58477) rotate(78.681) scale(9.74634 40.1747)">
      <stop stop-color="#3771C8"/>
      <stop offset="0.128" stop-color="#3771C8"/>
      <stop offset="1" stop-color="#6600FF" stop-opacity="0"/>
    </radialGradient>
    <clipPath id="clip0_1477_9626">
      <rect width="22" height="22" fill="white"/>
    </clipPath>
  </defs>
</svg>

<svg xmlns="http://www.w3.org/2000/svg" width="22" height="22" fill="none"><g clip-path="url(#a)"><path fill="url(#b)" d="M16.844 0H5.156A5.156 5.156 0 0 0 0 5.156v11.688A5.156 5.156 0 0 0 5.156 22h11.688A5.156 5.156 0 0 0 22 16.844V5.156A5.156 5.156 0 0 0 16.844 0"/><path fill="url(#c)" d="M16.844 0H5.156A5.156 5.156 0 0 0 0 5.156v11.688A5.156 5.156 0 0 0 5.156 22h11.688A5.156 5.156 0 0 0 22 16.844V5.156A5.156 5.156 0 0 0 16.844 0"/><path fill="#fff" d="M11 2.406c-2.333 0-2.626.01-3.543.052-.915.042-1.54.187-2.085.4a4.2 4.2 0 0 0-1.523.99 4.2 4.2 0 0 0-.992 1.523c-.213.546-.358 1.17-.399 2.085-.041.917-.052 1.21-.052 3.544s.01 2.626.052 3.543c.042.915.187 1.54.4 2.085a4.2 4.2 0 0 0 .99 1.523c.478.478.958.772 1.522.992.547.212 1.172.357 2.087.399s1.209.052 3.543.052 2.626-.01 3.543-.052c.914-.042 1.54-.187 2.086-.4a4.2 4.2 0 0 0 1.522-.991c.478-.478.771-.957.992-1.522.21-.547.356-1.172.399-2.086.041-.917.052-1.209.052-3.543s-.011-2.627-.052-3.543c-.043-.915-.188-1.54-.4-2.086a4.2 4.2 0 0 0-.991-1.523 4.2 4.2 0 0 0-1.522-.99c-.548-.213-1.173-.358-2.088-.4-.916-.042-1.208-.052-3.543-.052zm-.77 1.549H11c2.295 0 2.567.008 3.473.05.838.038 1.293.178 1.596.295.401.156.687.342.988.643.3.3.487.587.643.988.117.303.258.758.296 1.596.04.906.05 1.178.05 3.471s-.01 2.566-.05 3.472c-.039.837-.179 1.292-.296 1.595a2.66 2.66 0 0 1-.643.987c-.301.3-.587.487-.988.643-.303.118-.758.258-1.596.296-.905.041-1.178.05-3.472.05s-2.567-.009-3.473-.05c-.838-.039-1.292-.179-1.596-.296a2.7 2.7 0 0 1-.988-.643c-.3-.3-.487-.587-.643-.988-.118-.302-.258-.757-.296-1.595-.041-.906-.05-1.178-.05-3.473s.009-2.566.05-3.472c.038-.837.178-1.292.296-1.595.156-.401.342-.688.643-.988s.587-.487.988-.644c.303-.118.758-.257 1.596-.296.793-.036 1.1-.046 2.702-.048zm5.358 1.427a1.031 1.031 0 1 0 0 2.063 1.031 1.031 0 0 0 0-2.064m-4.587 1.205a4.413 4.413 0 1 0 0 8.827 4.413 4.413 0 0 0 0-8.827m0 1.548a2.865 2.865 0 1 1 0 5.73 2.865 2.865 0 0 1 0-5.73"/></g><defs><radialGradient id="b" cx="0" cy="0" r="1" gradientTransform="matrix(0 -21.8036 20.2791 0 5.844 23.694)" gradientUnits="userSpaceOnUse"><stop stop-color="#FD5"/><stop offset=".1" stop-color="#FD5"/><stop offset=".5" stop-color="#FF543E"/><stop offset="1" stop-color="#C837AB"/></radialGradient><radialGradient id="c" cx="0" cy="0" r="1" gradientTransform="rotate(78.681 -2.81 -1.456)scale(9.74634 40.1747)" gradientUnits="userSpaceOnUse"><stop stop-color="#3771C8"/><stop offset=".128" stop-color="#3771C8"/><stop offset="1" stop-color="#60F" stop-opacity="0"/></radialGradient><clipPath id="a"><path fill="#fff" d="M0 0h22v22H0z"/></clipPath></defs></svg>
